packages/ffe-icons/icons/filled/md/gastroenterology.svg

<svg xmlns="http://www.w3.org/2000/svg" height="24" viewBox="0 -960 960 960" width="24"><path d="M175.77-90q-15.461 0-25.807-10.347-10.346-10.346-10.346-25.807V-320q0-45.769 32.115-77.884t77.884-32.115h80q54.231 0 92.116-37.885T459.617-560q0-20.846-14.577-35.424-14.577-14.577-35.424-14.577-29.153 0-49.576-20.423-20.423-20.422-20.423-49.576v-153.846q0-15.461 10.346-25.807 10.346-10.346 25.807-10.346h128.075q15.461 0 25.807 10.346 10.347 10.346 10.347 25.807v24.999q0 7.693 5.577 13.27 5.577 5.578 13.27 5.578 110.461 0 185.807 79.192Q819.999-631.615 819.999-520v40q0 112.769-78.616 191.384-78.615 78.615-191.384 78.615h-160q-20.846 0-35.423 14.577-14.577 14.578-14.577 35.424v33.846q0 15.461-10.347 25.807-10.346 10.346-25.807 10.346H175.77Z"/></svg>

<svg xmlns="http://www.w3.org/2000/svg" height="24" viewBox="0 -960 960 960" width="24"><path d="M175.77-90q-15.46 0-25.81-10.35-10.34-10.34-10.34-25.8V-320q0-45.77 32.11-77.88Q203.85-430 249.62-430h80q54.23 0 92.11-37.88 37.89-37.89 37.89-92.12 0-20.85-14.58-35.42Q430.46-610 409.62-610q-29.16 0-49.58-20.42-20.42-20.43-20.42-49.58v-153.85q0-15.46 10.34-25.8Q360.31-870 375.77-870h128.07q15.47 0 25.81 10.35Q540-849.31 540-833.85v25q0 7.7 5.58 13.27 5.57 5.58 13.27 5.58 110.46 0 185.8 79.19Q820-631.61 820-520v40q0 112.77-78.62 191.38Q662.77-210 550-210H390q-20.85 0-35.42 14.58Q340-180.85 340-160v33.85q0 15.46-10.35 25.8Q319.31-90 303.84-90H175.77Z"/></svg>
